src/assets/images/infinitive/glyph.svg

<?xml version="1.0" encoding="UTF-8" standalone="no"?><!DOCTYPE svg PUBLIC "-//W3C//DTD SVG 1.1//EN" "http://www.w3.org/Graphics/SVG/1.1/DTD/svg11.dtd"><svg width="100%" height="100%" viewBox="0 0 199 199" version="1.1" xmlns="http://www.w3.org/2000/svg" xmlns:xlink="http://www.w3.org/1999/xlink" xml:space="preserve" xmlns:serif="http://www.serif.com/" style="fill-rule:evenodd;clip-rule:evenodd;stroke-linejoin:round;stroke-miterlimit:2;"><rect id="Glyph-White" serif:id="Glyph White" x="0.275" y="0.638" width="197.902" height="197.902" style="fill:#fff;fill-opacity:0;"/><path d="M88.126,88.489l-0,-27.987c-0,-27.699 22.488,-50.187 50.187,-50.187c27.699,-0 50.187,22.488 50.187,50.187c0,27.699 -22.488,50.187 -50.187,50.187l-27.987,0l-0,27.988c-0,27.699 -22.488,50.187 -50.188,50.187c-27.699,0 -50.187,-22.488 -50.187,-50.187c0,-27.699 22.488,-50.188 50.187,-50.188l27.988,0Zm-0,22.2l-27.988,0c-15.446,0 -27.987,12.541 -27.987,27.988c0,15.446 12.541,27.987 27.987,27.987c15.447,0 27.988,-12.541 27.988,-27.987l-0,-27.988Zm22.2,-22.2l27.987,0c15.447,0 27.987,-12.54 27.987,-27.987c0,-15.446 -12.54,-27.987 -27.987,-27.987c-15.447,-0 -27.987,12.541 -27.987,27.987l-0,27.987Z" style="fill:#fff;"/></svg>

<svg width="199" height="199" viewBox="0 0 199 199" fill="none" xmlns="http://www.w3.org/2000/svg">
<path fill-rule="evenodd" clip-rule="evenodd" d="M88.126 88.489V60.502C88.126 32.803 110.614 10.315 138.313 10.315C166.012 10.315 188.5 32.803 188.5 60.502C188.5 88.201 166.012 110.689 138.313 110.689H110.326V138.677C110.326 166.376 87.838 188.864 60.138 188.864C32.439 188.864 9.95099 166.376 9.95099 138.677C9.95099 110.978 32.439 88.489 60.138 88.489H88.126ZM88.126 110.689H60.138C44.692 110.689 32.151 123.23 32.151 138.677C32.151 154.123 44.692 166.664 60.138 166.664C75.585 166.664 88.126 154.123 88.126 138.677V110.689ZM110.326 88.489H138.313C153.76 88.489 166.3 75.949 166.3 60.502C166.3 45.056 153.76 32.515 138.313 32.515C122.866 32.515 110.326 45.056 110.326 60.502V88.489Z" fill="#561886"/>
</svg>
